X: 28
T:Pinagay Branle
M:C|
R:Branle
N:Barring is editorial
Z:Steve Mansfield March 2001
B:Thoinot Arbeau : Orchesographie, 1589
K:GMix
GG GG | AA Bd/c/ | Bz |
GG GG | AA Bd/c/ | Bd/c/ Bd/c/ | Bz |
BA GA | FG AG | BB AG | GF G2 :|

